app/images/dist/smartphone.svg

<svg width="48" height="48" viewBox="0 0 48 48" fill="none" xmlns="http://www.w3.org/2000/svg">
<path d="M37.6004 15.5V32.5C37.6004 39.3 35.9004 41 29.1004 41H18.9004C12.1004 41 10.4004 39.3 10.4004 32.5V15.5C10.4004 8.7 12.1004 7 18.9004 7H29.1004C35.9004 7 37.6004 8.7 37.6004 15.5Z" stroke="#DC143C" stroke-width="1.5" stroke-linecap="round" stroke-linejoin="round"/>
<path d="M27.4006 12.95H20.6006" stroke="#DC143C" stroke-width="1.5" stroke-linecap="round" stroke-linejoin="round"/>
<path d="M24.0002 36.07C25.4555 36.07 26.6352 34.8903 26.6352 33.435C26.6352 31.9798 25.4555 30.8 24.0002 30.8C22.545 30.8 21.3652 31.9798 21.3652 33.435C21.3652 34.8903 22.545 36.07 24.0002 36.07Z" stroke="#DC143C" stroke-width="1.5" stroke-linecap="round" stroke-linejoin="round"/>
</svg>

<svg width="48" height="48" fill="none" xmlns="http://www.w3.org/2000/svg"><path d="M37.6 15.5v17c0 6.8-1.7 8.5-8.5 8.5H18.9c-6.8 0-8.5-1.7-8.5-8.5v-17c0-6.8 1.7-8.5 8.5-8.5h10.2c6.8 0 8.5 1.7 8.5 8.5Zm-10.2-2.55h-6.8" stroke="#DC143C" stroke-width="1.5" stroke-linecap="round" stroke-linejoin="round"/><path d="M24 36.07a2.635 2.635 0 1 0 0-5.27 2.635 2.635 0 0 0 0 5.27Z" stroke="#DC143C" stroke-width="1.5" stroke-linecap="round" stroke-linejoin="round"/></svg>
